vendor/shopware/storefront/Resources/app/storefront/dist/assets/icon/default/paint.svg

<svg xmlns="http://www.w3.org/2000/svg" width="24" height="24" viewBox="0 0 24 24">
  <path fill="#758CA3" fill-rule="evenodd" d="M5,11.0193337 L5,19 C5,19.5522847 5.44771525,20 6,20 L18,20 C18.5522847,20 19,19.5522847 19,19 L19,16 L12,16 C10.8954305,16 10,15.1045695 10,14 L10,10 C10,8.8954305 10.8954305,8 12,8 L19,8 L19,4 L14,4 C14,5.1045695 13.1045695,6 12,6 C11.7508019,6 11.5122486,5.9544241 11.2922208,5.87115298 L5,11.0193337 Z M5,8.43521178 L10.0259576,4.32306466 C10.0088784,4.21790182 10,4.10998774 10,4 L5,4 L5,8.43521178 Z M3,12.6556973 L1.63323779,13.7739573 C1.20579298,14.1236849 0.575770275,14.0606826 0.226042701,13.6332378 C-0.123684874,13.205793 -0.0606826036,12.5757703 0.36676221,12.2260427 L3,10.0715754 L3,3 C3,2.44771525 3.44771525,2 4,2 L20,2 C20.5522847,2 21,2.44771525 21,3 L21,19 C21,20.6568542 19.6568542,22 18,22 L6,22 C4.34314575,22 3,20.6568542 3,19 L3,12.6556973 Z M19,10 L12,10 L12,14 L19,14 L19,10 Z"/>
</svg>

<svg xmlns="http://www.w3.org/2000/svg" width="24" height="24" viewBox="0 0 24 24"><path fill="#758CA3" fill-rule="evenodd" d="M5 11.0193V19c0 .5523.4477 1 1 1h12c.5523 0 1-.4477 1-1v-3h-7c-1.1046 0-2-.8954-2-2v-4c0-1.1046.8954-2 2-2h7V4h-5c0 1.1046-.8954 2-2 2a1.9955 1.9955 0 0 1-.7078-.1288L5 11.0193zm0-2.584 5.026-4.1122A2.0142 2.0142 0 0 1 10 4H5v4.4352zm-2 4.2204L1.6332 13.774c-.4274.3497-1.0574.2867-1.4072-.1408-.3497-.4274-.2867-1.0574.1408-1.4072L3 10.0716V3c0-.5523.4477-1 1-1h16c.5523 0 1 .4477 1 1v16c0 1.6569-1.3431 3-3 3H6c-1.6569 0-3-1.3431-3-3v-6.3443zM19 10h-7v4h7v-4z"/></svg>
